lib/flags/l/NP.svg

<svg xmlns="http://www.w3.org/2000/svg" fill="none" viewBox="0 0 32 24"><path fill="#fff" d="M0 0H32V24H0z"/><path fill="#C51918" stroke="#4857A1" d="M11.6159 12.3201L20.9325 23.5H0.5V0.842271L20.0392 11.5H12H10.9325L11.6159 12.3201Z"/><mask id="NP_svg__a" width="22" height="24" x="0" y="0" mask-type="alpha" maskUnits="userSpaceOnUse"><path fill="#fff" stroke="#fff" d="M11.6159 12.3201L20.9325 23.5H0.5V0.842271L20.0392 11.5H12H10.9325L11.6159 12.3201Z"/></mask><g fill-rule="evenodd" clip-rule="evenodd" mask="url(#NP_svg__a)"><path fill="#F7FCFF" d="M5.82963 20.0102 4.60446 21.6003 4.54791 19.5938 2.6221 20.16 3.75576 18.5035 1.86491 17.8296 3.75576 17.1558 2.6221 15.4992 4.54791 16.0655 4.60446 14.059 5.82963 15.649 7.0548 14.059 7.11135 16.0655 9.03716 15.4992 7.9035 17.1558 9.79435 17.8296 7.9035 18.5035 9.03716 20.16 7.11135 19.5938 7.0548 21.6003 5.82963 20.0102zM5.80005 8.1388 5.16021 8.96921 5.13068 7.92131 4.12494 8.21704 4.71698 7.35191 3.7295 7 4.71698 6.64809 4.12494 5.78296 5.13068 6.07869 5.16021 5.03079 5.80005 5.8612 6.43988 5.03079 6.46942 6.07869 7.47516 5.78296 6.88312 6.64809 7.8706 7 6.88312 7.35191 7.47516 8.21704 6.46942 7.92131 6.43988 8.96921 5.80005 8.1388z"/><path fill="#F9FAFA" d="M5.66606 7.89414C7.89237 7.90303 9.07938 6.64004 9.07938 6.64004C9.3142 8.0812 7.50118 9.04004 5.68776 9.04004C3.87433 9.04004 2.77639 7.73302 2.09998 6.64004C2.09998 6.64004 3.43974 7.88525 5.66606 7.89414Z"/></g></svg>

<svg xmlns="http://www.w3.org/2000/svg" fill="none" viewBox="0 0 32 24"><path fill="#fff" d="M0 0h32v24H0z"/><path fill="#C51918" stroke="#4857A1" d="M11.616 12.32l9.317 11.18H.5V.842L20.04 11.5h-9.109l.684.82z"/><mask id="NP_svg__a" width="22" height="24" x="0" y="0" maskUnits="userSpaceOnUse"><path fill="#fff" stroke="#fff" d="M11.616 12.32l9.317 11.18H.5V.842L20.04 11.5h-9.109l.684.82z"/></mask><g fill-rule="evenodd" clip-rule="evenodd" mask="url(#NP_svg__a)"><path fill="#F7FCFF" d="M5.83 20.01L4.604 21.6l-.056-2.006-1.926.566 1.134-1.657-1.891-.673 1.89-.674-1.133-1.657 1.926.566.056-2.006 1.226 1.59 1.225-1.59.056 2.007 1.926-.567-1.134 1.657 1.891.674-1.89.674 1.133 1.656-1.926-.566-.056 2.006-1.225-1.59zM5.8 8.139l-.64.83-.03-1.048-1.005.296.592-.865L3.73 7l.987-.352-.592-.865 1.006.296.03-1.048.64.83.639-.83.03 1.048 1.005-.296-.592.865.988.352-.988.352.592.865-1.006-.296-.03 1.048-.639-.83z"/><path fill="#F9FAFA" d="M5.666 7.894C7.892 7.903 9.08 6.64 9.08 6.64c.235 1.441-1.578 2.4-3.391 2.4-1.814 0-2.912-1.307-3.588-2.4 0 0 1.34 1.245 3.566 1.254z"/></g></svg>
